!!!OTL: WAS IST DOCH AUF DIESER WELT
!!!ARE: Europa, Mitteleuropa, Deutschland
!!!SCT: F0639
!!!YEM: Copyright 1995, estate of Helmut Schaffrath.
**kern
*ICvox
*Ivox
*M4/4
*k[f#c#g#]
*A:
=1
{4e
8f#
8d
4e
8f#
8d
=2
4e
8f#
8g#
4a
4r}
=3
{4.cc#
8a
4.a
8e
=4
4.e
8d
4c#
4r}
=5
{4e
4f#
4g#
4a
=6
4b
4cc#
8b
8g#
4e}
=7
{4g#
4a
4b
4cc#
=8
4dd
4cc#
4cc#
4b}
=9
{4e
4e
4.dd
8cc#
=10
4.b
8a
4g#
4e}
=11
{4.e
8dd
4.cc#
8ee
=12
8ee
8dd
8b
8g#
4a
4r}
=13
{4e
4e
4.dd
8cc#
=14
4.b
8a
4g#
4e}
=15
{4.e
8dd
4.cc#
8ee
=16
8ee
8dd
8b
8g#
4a
4r}
==
!!!AGN: Staende -, Jaeger - Lied
!!!ONB: ESAC (Essen Associative Code) Database: FINK
!!!AMT: simple quadruple
!!!AIN: vox
!!!EED: Helmut Schaffrath
!!!EEV: 1.0
*-
